synths/sCOIN.svg

<svg width="480" height="480" viewBox="0 0 480 480" fill="none" xmlns="http://www.w3.org/2000/svg"><mask id="mask0-808285" maskUnits="userSpaceOnUse" x="0" y="0" width="480" height="480"><circle cx="240" cy="240" r="240" fill="url(#paint0_linear-847024)"/></mask><g mask="url(#mask0-808285)"><circle cx="240" cy="240" r="240" fill="#31D8A4"/><circle cx="240" cy="240" r="208" fill="#fff"/></g><circle cx="240" cy="240" r="184" fill="#0052FF"/><path fill-rule="evenodd" clip-rule="evenodd" d="M269.525 118.198c16.829 4.36 27.835 9.328 41.779 18.858 15.971 10.914 31.878 29.168 40.672 46.67 5.513 10.973 10.728 28.183 12.525 41.335l.651 4.764-31.712-.264-31.711-.264-1.653-6c-4.397-15.957-16.341-30.786-30.898-38.36-9.743-5.068-18.115-7.11-29.153-7.11-26.823 0-48.822 15.601-58.839 41.728-2.29 5.975-2.589 8.222-2.623 19.742-.041 13.856.938 18.404 6.241 29 7.754 15.495 22.856 27.36 40.681 31.961 7.555 1.951 21.161 1.952 29.426.004 14.681-3.461 30.243-14.86 37.991-27.829 3.639-6.091 8.123-17.507 8.123-20.681 0-1.899.915-1.955 31.981-1.955h31.981l-.561 4.75c-.893 7.558-5.22 24.459-8.035 31.389-14.321 35.242-43.218 61.976-79.195 73.265-34.712 10.891-72.243 5.993-103.905-13.562-11.778-7.275-30.117-25.329-37.826-37.241-23.693-36.605-27.018-81.908-8.905-121.34 11.481-24.996 35.73-49.245 60.726-60.726 8.967-4.119 21.683-8.155 31.661-10.05 12.279-2.331 37.936-1.359 50.578 1.916z" fill="#fff"/><defs><linearGradient id="paint0_linear-847024" x1="240" y1="0" x2="240" y2="701.818" gradientUnits="userSpaceOnUse"><stop stop-color="#08021E"/><stop offset="1" stop-color="#1F0777"/></linearGradient></defs></svg>

<svg width="480" height="480" viewBox="0 0 480 480" fill="none" xmlns="http://www.w3.org/2000/svg">
<mask id="mask0-808285" mask-type="alpha" maskUnits="userSpaceOnUse" x="0" y="0" width="480" height="480">
<circle cx="240" cy="240" r="240" fill="url(#paint0_linear-847024)"/>
</mask>
<g mask="url(#mask0-808285)">
<circle cx="240" cy="240" r="240" fill="#31D8A4"/>
<circle cx="240" cy="240" r="208" fill="white"/>
</g>
<circle cx="240" cy="240" r="184" fill="#0052FF"/>
<path fill-rule="evenodd" clip-rule="evenodd" d="M269.525 118.198C286.354 122.558 297.36 127.526 311.304 137.056C327.275 147.97 343.182 166.224 351.976 183.726C357.489 194.699 362.704 211.909 364.501 225.061L365.152 229.825L333.44 229.561L301.729 229.297L300.076 223.297C295.679 207.34 283.735 192.511 269.178 184.937C259.435 179.869 251.063 177.827 240.025 177.827C213.202 177.827 191.203 193.428 181.186 219.555C178.896 225.53 178.597 227.777 178.563 239.297C178.522 253.153 179.501 257.701 184.804 268.297C192.558 283.792 207.66 295.657 225.485 300.258C233.04 302.209 246.646 302.21 254.911 300.262C269.592 296.801 285.154 285.402 292.902 272.433C296.541 266.342 301.025 254.926 301.025 251.752C301.025 249.853 301.94 249.797 333.006 249.797H364.987L364.426 254.547C363.533 262.105 359.206 279.006 356.391 285.936C342.07 321.178 313.173 347.912 277.196 359.201C242.484 370.092 204.953 365.194 173.291 345.639C161.513 338.364 143.174 320.31 135.465 308.398C111.772 271.793 108.447 226.49 126.56 187.058C138.041 162.062 162.29 137.813 187.286 126.332C196.253 122.213 208.969 118.177 218.947 116.282C231.226 113.951 256.883 114.923 269.525 118.198Z" fill="white"/>
<defs>
<linearGradient id="paint0_linear-847024" x1="240" y1="0" x2="240" y2="701.818" gradientUnits="userSpaceOnUse">
<stop stop-color="#08021E"/>
<stop offset="1" stop-color="#1F0777"/>
</linearGradient>
</defs>
</svg>
